X:147
T:Läilä sorken.
S:Hörd från många håll.
M:3/4
L:1/8
K:F
F A c2 d e|f d c2 A c|c B G2 G B|
w:Läi-lä sor-ken pa kvän-nä-bak-ken mä rau-dä rok-ken u
d c A2 F2|(Ac) G2 G G|B A F2 z2|
w:väi-tä hat-ten, han_ fräi-jä-dä ät-tar mai.
F A c2 d e|f d c2 A A|c B G2 G B|
w:När han komm äut-i aus-trä pour-ten, så slou han na-sar äi
d c A2 F2|:A c G2 G2|B A F2 z2:|
w:sväi-nä-lour-ten. Å Gu trys-tä mai för dai!
